icons/parcel.svg

<?xml version="1.0" encoding="UTF-8"?>
<svg version="1.1" viewBox="0 0 24 24" xmlns="http://www.w3.org/2000/svg">
 <path d="m2.007 10.96c-0.5-0.28-0.65-0.89-0.37-1.37l1.5-2.59c0.11-0.2 0.28-0.34 0.47-0.42l7.83-4.4c0.16-0.12 0.36-0.18 0.57-0.18s0.41 0.06 0.57 0.18l7.9 4.44c0.19 0.1 0.35 0.26 0.44 0.46l1.45 2.52c0.28 0.48 0.11 1.09-0.36 1.36l-1 0.58v4.96c0 0.38-0.21 0.71-0.53 0.88l-7.9 4.44c-0.16 0.12-0.36 0.18-0.57 0.18s-0.41-0.06-0.57-0.18l-7.9-4.44c-0.32-0.17-0.53-0.5-0.53-0.88v-5.54c-0.3 0.17-0.68 0.18-1 0m10-6.81v6.7l5.96-3.35-5.96-3.35m-7 11.76 6 3.38v-6.71l-6-3.37v6.7m14 0v-3.22l-5 2.9c-0.33 0.18-0.7 0.17-1 0.01v3.69l6-3.38m-5.15-2.55 6.28-3.63-0.58-1.01-6.28 3.63z" fill="#ffb74d"/>
</svg>

<svg xmlns="http://www.w3.org/2000/svg" viewBox="0 0 24 24"><path d="M2,10.96C1.5,10.68 1.35,10.07 1.63,9.59L3.13,7C3.24,6.8 3.41,6.66 3.6,6.58L11.43,2.18C11.59,2.06 11.79,2 12,2C12.21,2 12.41,2.06 12.57,2.18L20.47,6.62C20.66,6.72 20.82,6.88 20.91,7.08L22.36,9.6C22.64,10.08 22.47,10.69 22,10.96L21,11.54V16.5C21,16.88 20.79,17.21 20.47,17.38L12.57,21.82C12.41,21.94 12.21,22 12,22C11.79,22 11.59,21.94 11.43,21.82L3.53,17.38C3.21,17.21 3,16.88 3,16.5V10.96C2.7,11.13 2.32,11.14 2,10.96M12,4.15V4.15L12,10.85V10.85L17.96,7.5L12,4.15M5,15.91L11,19.29V12.58L5,9.21V15.91M19,15.91V12.69L14,15.59C13.67,15.77 13.3,15.76 13,15.6V19.29L19,15.91M13.85,13.36L20.13,9.73L19.55,8.72L13.27,12.35L13.85,13.36Z" fill="#ffcc80" /></svg>
